!!!OTL: 42k. Landsknab und Koenigstochter.
!!!ODT: 1858
!!!ARE: Europa, Mitteleuropa, Deutschland, Koenigsberg, Uderwangen
!!!SCT: E0042I
!!!TXL: @@DE
!!!YEM: Copyright 1995, estate of Helmut Schaffrath.
**kern	**text
*ICvox	*
*M6/8	*
*k[b-]	*
*F:	*
!LO:TX:a:t=Etwas langſam.	!
!LO:TX:a:t=Aus Uderwangen bei Königsberg in Pr. 1858.	!
{8f	Es
=1	=1
4a	ritt
8f	ein
4a	Lands-
8b-	-knab
=2	=2
[4cc	ü-
8cc]	-ber
4cc}	Feld,
{8ff	friſch
=3	=3
4cc	fröhlich
8a	fing_er
4b-/	an
8a	ʒu
=4	=4
4.a	ſin-
4g	-gen,
8r	.
=5	=5
(4f	ſin-
8a)	.
4cc}	-gen,
{8ff	friſch
=6	=6
4cc	fröhlich
8a	fing_er
4b-/	an
8a	ʒu
=7	=7
4.g	ſin-
4f}	-gen.
==	==
!!!AGN: erzaehlendes Volks - Lied, Ritter -, Raeuber - Sage, Ballade ?
!!!ONB: ESAC (Essen Associative Code) Database: ERK1
!!!AMT: compound duple
!!!AIN: vox
!!!EED: Helmut Schaffrath
!!!EEV: 1.0
!!!GTL: Ritter- und Raeubersagen
!!!URL-scan: https://rosdok.uni-rostock.de/mcrviewer/recordIdentifier/rosdok_ppn745146120/iview2/phys_0208.iview2?x=-250.1417780126858&y=101.9774321471341&scale=0.5392104374602399&rotation=0&layout=singlePageLayout&logicalDiv=log_0009
!!!ENC: Anna Maria Matuszewska
!!!EEV: 2024/11/25
*-	*-
